icon-themes/sifr_svg/cmd/lc_reverseorder.svg

<svg viewBox="0 0 24 24" xmlns="http://www.w3.org/2000/svg"><path d="m5 3-3 4h11v-3h4v3l5-4zm9 2v4h-2l3 3 3-3h-2v-4zm-5 7-3 3h2v4h2v-4h2zm-2 5-5 4h17l3-4h-11v3h-4z" fill="#555753"/></svg>

<svg xmlns="http://www.w3.org/2000/svg" viewBox="0 0 24 24">
  <path
     style="fill:#555753"
     d="M 5 3 L 2 7 L 13 7 L 13 4 L 17 4 L 17 7 L 22 3 L 5 3 z M 14 5 L 14 9 L 12 9 L 15 12 L 18 9 L 16 9 L 16 5 L 14 5 z M 9 12 L 6 15 L 8 15 L 8 19 L 10 19 L 10 15 L 12 15 L 9 12 z M 7 17 L 2 21 L 19 21 L 22 17 L 11 17 L 11 20 L 7 20 L 7 17 z "
     />
</svg>
